symbolic/64x64/places/folder-blue-unlocked.svg

<svg xmlns="http://www.w3.org/2000/svg" width="64" height="64" version="1"><rect style="opacity:.2" width="56" height="36" x="4" y="22" rx="2.8" ry="2.8"/><path style="fill:#4877b1" d="M4 46.2C4 47.751 5.249 49 6.8 49h50.4c1.551 0 2.8-1.249 2.8-2.8V15.8c0-1.551-1.249-2.8-2.8-2.8H32c-4.2 0-5.6-6-9.8-6H6.8A2.794 2.794 0 0 0 4 9.8"/><rect style="opacity:.2" width="56" height="36" x="4" y="20" rx="2.8" ry="2.8"/><rect style="fill:#e4e4e4" width="48" height="22" x="8" y="16" rx="2.8" ry="2.8"/><rect style="fill:#5294e2" width="56" height="36" x="4" y="21" rx="2.8" ry="2.8"/><path style="opacity:.1;fill:#fff" d="M6.8 7C5.25 7 4 8.25 4 9.8v1.001A2.795 2.795 0 0 1 6.8 8H22.2c4.2 0 5.601 6 9.801 6h25.199A2.796 2.796 0 0 1 60 16.801v-1A2.796 2.796 0 0 0 57.199 13H32c-4.2 0-5.601-6-9.801-6z"/><path style="fill:#1d344f" d="M32 27c-3.32 0-6 2.6-6 6h2c0-2.2 1.78-4 4-4 2.22 0 4 1.8 4 4v4H25c-.554 0-1 .446-1 1v10c0 .554.446 1 1 1h14c.554 0 1-.446 1-1V38c0-.554-.446-1-1-1h-1v-4c0-3.4-2.68-6-6-6z"/></svg>

<svg xmlns="http://www.w3.org/2000/svg" width="64" height="64" version="1">
 <rect style="opacity:0.2" width="56" height="36" x="4" y="22" rx="2.8" ry="2.8"/>
 <path style="fill:#4877b1" d="M 4,46.2 C 4,47.751 5.2488,49 6.8,49 H 57.2 C 58.751,49 60,47.751 60,46.2 V 15.8 C 60,14.249 58.751,13 57.2,13 H 32 C 27.8,13 26.4,7 22.2,7 H 6.8 C 5.2488,7 4,8.2488 4,9.8"/>
 <rect style="opacity:0.2" width="56" height="36" x="4" y="20" rx="2.8" ry="2.8"/>
 <rect style="fill:#e4e4e4" width="48" height="22" x="8" y="16" rx="2.8" ry="2.8"/>
 <rect style="fill:#5294e2" width="56" height="36" x="4" y="21" rx="2.8" ry="2.8"/>
 <path style="opacity:0.1;fill:#ffffff" d="M 6.8008,7 C 5.2496,7 4,8.2496 4,9.8008 V 10.801 C 4,9.2496 5.2496,8 6.8008,8 H 22.199 C 26.399,8 27.8,14 32,14 H 57.199 C 58.75,14 60,15.25 60,16.801 V 15.801 C 60,14.25 58.75,13 57.199,13 H 32 C 27.8,13 26.399,7 22.199,7 Z"/>
 <path style="fill:#1d344f" d="M 32,27 C 28.68,27 26,29.6 26,33 H 28 C 28,30.8 29.78,29 32,29 34.22,29 36,30.8 36,33 V 37 H 32 28 26 25 C 24.446,37 24,37.446 24,38 V 48 C 24,48.554 24.446,49 25,49 H 39 C 39.554,49 40,48.554 40,48 V 38 C 40,37.446 39.554,37 39,37 H 38 V 33 C 38,29.6 35.32,27 32,27 Z"/>
</svg>
